icons/concrete5.svg

<?xml version="1.0" encoding="UTF-8" standalone="no"?>
<svg width="256px" height="256px" viewBox="0 0 256 256" version="1.1" xmlns="http://www.w3.org/2000/svg" xmlns:xlink="http://www.w3.org/1999/xlink" preserveAspectRatio="xMidYMid">
    <defs>
        <linearGradient x1="49.9804764%" y1="-1.64142327e-09%" x2="49.9804764%" y2="99.9584537%" id="linearGradient-1">
            <stop stop-color="#7A7A7A" offset="0%"></stop>
            <stop stop-color="#000000" offset="100%"></stop>
        </linearGradient>
        <radialGradient cx="49.2517888%" cy="67.5814637%" fx="49.2517888%" fy="67.5814637%" r="62.3374355%" id="radialGradient-2">
            <stop stop-color="#FFFFFF" offset="0%"></stop>
            <stop stop-color="#6B6B6B" offset="65.3161473%"></stop>
            <stop stop-color="#000000" offset="100%"></stop>
        </radialGradient>
        <linearGradient x1="49.9983094%" y1="-0.0252747253%" x2="49.9983094%" y2="100.005495%" id="linearGradient-3">
            <stop stop-color="#FFFFFF" offset="0%"></stop>
            <stop stop-color="#FCFCFC" offset="21.82%"></stop>
            <stop stop-color="#F4F4F4" offset="35.38%"></stop>
            <stop stop-color="#E5E5E5" offset="46.71%"></stop>
            <stop stop-color="#D1D1D1" offset="56.79%"></stop>
            <stop stop-color="#B6B6B6" offset="66.05%"></stop>
            <stop stop-color="#959595" offset="74.72%"></stop>
            <stop stop-color="#6E6E6E" offset="82.92%"></stop>
            <stop stop-color="#414141" offset="90.75%"></stop>
            <stop stop-color="#0F0F0F" offset="98.03%"></stop>
            <stop stop-color="#000000" offset="100%"></stop>
        </linearGradient>
        <linearGradient x1="49.9996616%" y1="0.120873786%" x2="49.9996616%" y2="99.9021845%" id="linearGradient-4">
            <stop stop-color="#FFFFFF" offset="0%"></stop>
            <stop stop-color="#F7F7F7" offset="0.587422%"></stop>
            <stop stop-color="#D3D3D3" offset="3.627752%"></stop>
            <stop stop-color="#B2B2B2" offset="7.048631%"></stop>
            <stop stop-color="#979797" offset="10.83%"></stop>
            <stop stop-color="#818181" offset="15.1%"></stop>
            <stop stop-color="#707070" offset="20.09%"></stop>
            <stop stop-color="#646464" offset="26.25%"></stop>
            <stop stop-color="#5E5E5E" offset="34.9%"></stop>
            <stop stop-color="#5C5C5C" offset="58.92%"></stop>
        </linearGradient>
        <linearGradient x1="49.9979902%" y1="0.00701394586%" x2="49.9979902%" y2="99.990361%" id="linearGradient-5">
            <stop stop-color="#000000" offset="0%"></stop>
            <stop stop-color="#666666" offset="27.57%"></stop>
            <stop stop-color="#000000" offset="31.35%"></stop>
            <stop stop-color="#404040" offset="62.16%"></stop>
            <stop stop-color="#383838" offset="94.05%"></stop>
            <stop stop-color="#000000" offset="100%"></stop>
        </linearGradient>
    </defs>
	<g>
		<path d="M220.737743,0 L34.2661479,0 C15.3400778,0 0,15.3400778 0,34.2661479 L0,220.837354 C0,239.763424 15.3400778,255.103502 34.2661479,255.103502 L220.837354,255.103502 C239.763424,255.103502 255.103502,239.763424 255.103502,220.837354 L255.103502,34.2661479 C255.003891,15.3400778 239.663813,0 220.737743,0 L220.737743,0 L220.737743,0 Z" fill="url(#linearGradient-1)"></path>
		<path d="M219.940856,1.09571984 L34.9634241,1.09571984 C16.2365759,1.09571984 1.09571984,16.2365759 1.09571984,34.9634241 L1.09571984,219.940856 C1.09571984,238.667704 16.3361868,253.908171 35.063035,253.908171 L220.040467,253.908171 C238.767315,253.908171 254.007782,238.667704 254.007782,219.940856 L254.007782,34.9634241 C253.908171,16.2365759 238.767315,1.09571984 219.940856,1.09571984 L219.940856,1.09571984 L219.940856,1.09571984 Z" fill="#010101"></path>
		<path d="M244.245914,215.259144 C244.245914,232.59144 230.200778,246.536965 212.968093,246.536965 L42.3346304,246.536965 C25.0023346,246.536965 11.0568093,232.491829 11.0568093,215.259144 L11.0568093,44.7252918 C11.0568093,27.3929961 25.1019455,13.4474708 42.3346304,13.4474708 L212.868482,13.4474708 C230.200778,13.4474708 244.146304,27.492607 244.146304,44.7252918 L244.146304,215.259144 L244.245914,215.259144 L244.245914,215.259144 Z" opacity="0.3" fill="url(#radialGradient-2)"></path>
		<path d="M213.66537,9.56264591 L41.3385214,9.56264591 C23.8070039,9.56264591 9.66225681,23.707393 9.66225681,41.1392996 L9.66225681,103.49572 C43.8287938,112.859144 84.1712062,118.337743 127.501946,118.337743 C170.733074,118.337743 211.175097,112.859144 245.341634,103.49572 L245.341634,41.1392996 C245.341634,23.707393 231.196887,9.56264591 213.66537,9.56264591 L213.66537,9.56264591 L213.66537,9.56264591 Z" opacity="0.3" fill="url(#linearGradient-3)"></path>
		<path d="M41.3385214,18.8264591 L213.66537,18.8264591 C231.097276,18.8264591 245.242023,32.9712062 245.242023,50.4031128 L245.242023,41.0396887 C245.242023,23.6077821 231.097276,9.46303502 213.66537,9.46303502 L41.3385214,9.46303502 C23.9066148,9.46303502 9.7618677,23.707393 9.7618677,41.1392996 L9.7618677,50.5027237 C9.7618677,32.9712062 23.9066148,18.8264591 41.3385214,18.8264591 L41.3385214,18.8264591 L41.3385214,18.8264591 Z" opacity="0.64" fill="url(#linearGradient-4)"></path>
		<path d="M39.5455253,248.927626 C21.0178988,248.927626 6.07626459,233.985992 6.07626459,215.458366 L6.07626459,215.458366 L6.07626459,39.5455253 C6.07626459,21.0178988 21.0178988,6.07626459 39.5455253,6.07626459 L39.5455253,6.07626459 L215.458366,6.07626459 C233.985992,6.07626459 248.927626,21.0178988 248.927626,39.5455253 L248.927626,39.5455253 L248.927626,215.458366 C248.927626,233.985992 233.985992,248.927626 215.458366,248.927626 L215.458366,248.927626 L39.5455253,248.927626 L39.5455253,248.927626 Z M8.46692607,39.5455253 L8.46692607,215.458366 C8.46692607,232.59144 22.4124514,246.536965 39.5455253,246.536965 L39.5455253,246.536965 L215.458366,246.536965 C232.59144,246.536965 246.536965,232.59144 246.536965,215.458366 L246.536965,215.458366 L246.536965,39.5455253 C246.536965,22.4124514 232.59144,8.46692607 215.458366,8.46692607 L215.458366,8.46692607 L39.5455253,8.46692607 C22.4124514,8.46692607 8.46692607,22.4124514 8.46692607,39.5455253 L8.46692607,39.5455253 L8.46692607,39.5455253 Z" fill="url(#linearGradient-5)"></path>
		<path d="M215.458366,249.525292 L39.5455253,249.525292 C20.7190661,249.525292 5.47859922,234.185214 5.47859922,215.458366 L5.47859922,39.5455253 C5.47859922,20.7190661 20.818677,5.47859922 39.5455253,5.47859922 L215.458366,5.47859922 C234.284825,5.47859922 249.525292,20.818677 249.525292,39.5455253 L249.525292,215.458366 C249.525292,234.284825 234.284825,249.525292 215.458366,249.525292 L215.458366,249.525292 L215.458366,249.525292 Z M39.5455253,6.67392996 C21.4163424,6.67392996 6.67392996,21.4163424 6.67392996,39.5455253 L6.67392996,215.458366 C6.67392996,233.587549 21.4163424,248.329961 39.5455253,248.329961 L215.458366,248.329961 C233.587549,248.329961 248.329961,233.587549 248.329961,215.458366 L248.329961,39.5455253 C248.329961,21.4163424 233.587549,6.67392996 215.458366,6.67392996 L39.5455253,6.67392996 L39.5455253,6.67392996 Z M215.458366,247.13463 L39.5455253,247.13463 C22.1136187,247.13463 7.8692607,232.890272 7.8692607,215.458366 L7.8692607,39.5455253 C7.8692607,22.1136187 22.1136187,7.8692607 39.5455253,7.8692607 L215.458366,7.8692607 C232.890272,7.8692607 247.13463,22.1136187 247.13463,39.5455253 L247.13463,215.458366 C247.13463,232.890272 232.890272,247.13463 215.458366,247.13463 L215.458366,247.13463 L215.458366,247.13463 Z M9.06459144,39.5455253 L9.06459144,215.458366 C9.06459144,232.192996 22.711284,245.839689 39.5455253,245.9393 L215.458366,245.9393 C232.192996,245.9393 245.9393,232.292607 245.9393,215.458366 L245.9393,39.5455253 C245.9393,22.8108949 232.292607,9.16420233 215.458366,9.06459144 L39.5455253,9.06459144 C22.8108949,9.16420233 9.16420233,22.8108949 9.06459144,39.5455253 L9.06459144,39.5455253 L9.06459144,39.5455253 Z" fill="#010101"></path>
		<path d="M207.688716,154.994553 C189.360311,133.179767 161.270039,179.2 146.129183,189.061479 C135.670039,195.93463 119.732296,196.432685 108.575875,189.957977 C93.3354086,180.992996 98.0171206,159.477043 114.054475,154.197665 C128.398444,149.416342 153.500389,164.557198 162.564981,149.416342 C173.821012,130.789105 135.470817,126.406226 124.115175,126.90428 C103.694942,127.701167 83.9719844,134.375097 71.9190661,149.814786 C58.8700389,166.449805 61.8583658,186.571206 76.2023346,201.712062 C90.8451362,215.856809 112.062257,221.335409 133.279377,219.642023 C138.658366,219.24358 147.822568,216.952529 154.795331,213.067704 C168.740856,205.397665 211.374319,159.377432 207.688716,154.994553 L207.688716,154.994553 L207.688716,154.994553 Z M73.911284,138.757977 C80.9836576,140.152529 67.2373541,100.607004 66.340856,95.1284047 C65.2451362,88.5540856 62.8544747,79.2902724 56.2801556,78.2941634 C48.7097276,77.1984436 46.6178988,85.8645914 48.1120623,93.4350195 C49.9050584,101.204669 67.336965,137.363424 73.911284,138.757977 L73.911284,138.757977 L73.911284,138.757977 Z M132.582101,118.238132 C143.5393,119.831907 142.842023,67.1377432 142.842023,59.9657588 C142.842023,53.4910506 145.332296,35.6607004 136.666148,34.0669261 C124.71284,31.7758755 123.51751,47.5143969 123.318288,55.8817121 C123.716732,64.3486381 121.126848,116.644358 132.582101,118.238132 L132.582101,118.238132 L132.582101,118.238132 Z M158.680156,126.705058 C170.633463,131.685603 179.797665,78.4933852 181.192218,71.7198444 C182.48716,64.7470817 182.785992,50.0046693 170.832685,54.6863813 C164.856031,57.0770428 163.760311,66.7392996 162.863813,72.1182879 C161.36965,78.7922179 149.416342,122.820233 158.680156,126.705058 L158.680156,126.705058 L158.680156,126.705058 Z M101.005447,122.222568 C114.552529,123.218677 101.802335,69.7276265 100.706615,62.555642 C99.6108949,55.2840467 94.7299611,40.740856 84.6692607,49.2077821 C79.5891051,53.4910506 81.8801556,63.3525292 82.8762646,68.9307393 C83.7727626,76.1027237 90.6459144,121.425681 101.005447,122.222568 L101.005447,122.222568 L101.005447,122.222568 Z" fill="#FFFFFF"></path>
	</g>
</svg>

<svg xmlns="http://www.w3.org/2000/svg" viewBox="0 0 255.103 255.103">
  <defs>
    <linearGradient id="a" x1="127.502" x2="127.502" y1="0" y2="254.998" gradientUnits="userSpaceOnUse">
      <stop offset="0%" stop-color="#7A7A7A"/>
      <stop offset="100%"/>
    </linearGradient>
    <linearGradient id="c" x1="86.618" x2="86.618" y1="14.035" y2="174.197" gradientTransform="scale(1.47196 .67937)" gradientUnits="userSpaceOnUse">
      <stop offset="0%" stop-color="#FFF"/>
      <stop offset="21.82%" stop-color="#FCFCFC"/>
      <stop offset="35.38%" stop-color="#F4F4F4"/>
      <stop offset="46.71%" stop-color="#E5E5E5"/>
      <stop offset="56.79%" stop-color="#D1D1D1"/>
      <stop offset="66.05%" stop-color="#B6B6B6"/>
      <stop offset="74.72%" stop-color="#959595"/>
      <stop offset="82.92%" stop-color="#6E6E6E"/>
      <stop offset="90.75%" stop-color="#414141"/>
      <stop offset="98.03%" stop-color="#0F0F0F"/>
      <stop offset="100%"/>
    </linearGradient>
    <linearGradient id="d" x1="53.228" x2="53.228" y1="22.786" y2="120.877" gradientTransform="scale(2.39538 .41747)" gradientUnits="userSpaceOnUse">
      <stop offset="0%" stop-color="#FFF"/>
      <stop offset=".587%" stop-color="#F7F7F7"/>
      <stop offset="3.628%" stop-color="#D3D3D3"/>
      <stop offset="7.049%" stop-color="#B2B2B2"/>
      <stop offset="10.83%" stop-color="#979797"/>
      <stop offset="15.1%" stop-color="#818181"/>
      <stop offset="20.09%" stop-color="#707070"/>
      <stop offset="26.25%" stop-color="#646464"/>
      <stop offset="34.9%" stop-color="#5E5E5E"/>
      <stop offset="58.92%" stop-color="#5C5C5C"/>
    </linearGradient>
    <linearGradient id="e" x1="127.497" x2="127.497" y1="6.093" y2="248.904" gradientUnits="userSpaceOnUse">
      <stop offset="0%"/>
      <stop offset="27.57%" stop-color="#666"/>
      <stop offset="31.35%"/>
      <stop offset="62.16%" stop-color="#404040"/>
      <stop offset="94.05%" stop-color="#383838"/>
      <stop offset="100%"/>
    </linearGradient>
    <radialGradient id="b" cx="125.88" cy="171.009" r="145.333" fx="125.88" fy="171.009" gradientTransform="scale(1.00021 .99979)" gradientUnits="userSpaceOnUse">
      <stop offset="0%" stop-color="#FFF"/>
      <stop offset="65.316%" stop-color="#6B6B6B"/>
      <stop offset="100%"/>
    </radialGradient>
  </defs>
  <path fill="url(#a)" d="M220.738 0H34.266C15.34 0 0 15.34 0 34.266v186.571c0 18.926 15.34 34.266 34.266 34.266h186.571c18.926 0 34.266-15.34 34.266-34.266V34.267C255.003 15.34 239.663 0 220.738 0z" style="fill:url(#a)"/>
  <path fill="#010101" d="M219.94 1.096H34.964c-18.726 0-33.867 15.14-33.867 33.867v184.978c0 18.727 15.24 33.967 33.967 33.967H220.04c18.727 0 33.968-15.24 33.968-33.967V34.963c-.1-18.726-15.24-33.867-34.067-33.867z"/>
  <path fill="url(#b)" d="M244.246 215.26c0 17.331-14.045 31.277-31.278 31.277H42.335c-17.333 0-31.278-14.045-31.278-31.278V44.725c0-17.332 14.045-31.278 31.278-31.278h170.533c17.333 0 31.278 14.046 31.278 31.278V215.26h.1z" opacity=".3" style="fill:url(#b)"/>
  <path fill="url(#c)" d="M213.665 9.563H41.34c-17.532 0-31.677 14.144-31.677 31.576v62.357c34.167 9.363 74.51 14.842 117.84 14.842 43.231 0 83.673-5.479 117.84-14.842V41.139c0-17.432-14.145-31.576-31.677-31.576z" opacity=".3" style="fill:url(#c)"/>
  <path fill="url(#d)" d="M41.339 18.826h172.326c17.432 0 31.577 14.145 31.577 31.577V41.04c0-17.432-14.145-31.577-31.577-31.577H41.34c-17.432 0-31.577 14.244-31.577 31.676v9.364c0-17.532 14.145-31.677 31.577-31.677z" opacity=".64" style="fill:url(#d)"/>
  <path fill="url(#e)" d="M39.546 248.928c-18.528 0-33.47-14.942-33.47-33.47V39.546c0-18.528 14.942-33.47 33.47-33.47h175.912c18.528 0 33.47 14.942 33.47 33.47v175.912c0 18.528-14.942 33.47-33.47 33.47zM8.466 39.546v175.912c0 17.133 13.946 31.079 31.08 31.079h175.912c17.133 0 31.079-13.946 31.079-31.079V39.546c0-17.134-13.946-31.08-31.079-31.08H39.546c-17.134 0-31.08 13.946-31.08 31.08z" style="fill:url(#e)"/>
  <path fill="#010101" d="M215.458 249.525H39.546c-18.827 0-34.067-15.34-34.067-34.067V39.546c0-18.827 15.34-34.067 34.067-34.067h175.912c18.827 0 34.067 15.34 34.067 34.067v175.912c0 18.827-15.24 34.067-34.067 34.067zM39.546 6.674c-18.13 0-32.872 14.742-32.872 32.872v175.912c0 18.13 14.742 32.872 32.872 32.872h175.912c18.13 0 32.872-14.742 32.872-32.872V39.546c0-18.13-14.742-32.872-32.872-32.872H39.546zm175.912 240.46H39.546c-17.432 0-31.677-14.244-31.677-31.676V39.546c0-17.432 14.245-31.677 31.677-31.677h175.912c17.432 0 31.677 14.245 31.677 31.677v175.912c0 17.432-14.245 31.677-31.677 31.677zM9.065 39.547v175.912c0 16.735 13.646 30.382 30.48 30.481h175.913c16.735 0 30.481-13.646 30.481-30.48V39.545c0-16.735-13.646-30.382-30.48-30.481H39.545c-16.735.1-30.382 13.746-30.481 30.48z"/>
  <path fill="#fff" d="M207.689 154.995c-18.329-21.815-46.419 24.205-61.56 34.066-10.459 6.874-26.397 7.372-37.553.897-15.24-8.965-10.559-30.481 5.478-35.76 14.344-4.782 39.446 10.36 48.511-4.782 11.256-18.627-27.094-23.01-38.45-22.512-20.42.797-40.143 7.471-52.196 22.91-13.049 16.636-10.06 36.757 4.283 51.898 14.643 14.145 35.86 19.623 57.077 17.93 5.38-.398 14.544-2.69 21.516-6.574 13.946-7.67 56.58-53.69 52.894-58.073zM73.91 138.758c7.073 1.395-6.674-38.151-7.57-43.63-1.096-6.574-3.487-15.838-10.06-16.834-7.571-1.096-9.663 7.57-8.169 15.141 1.793 7.77 19.225 43.928 25.8 45.323zm58.671-20.52c10.957 1.594 10.26-51.1 10.26-58.272 0-6.475 2.49-24.305-6.176-25.9-11.953-2.29-13.148 13.448-13.348 21.816.399 8.467-2.191 60.762 9.264 62.356zm26.098 8.467c11.953 4.98 21.118-48.212 22.512-54.985 1.295-6.973 1.594-21.715-10.36-17.034-5.976 2.391-7.072 12.053-7.968 17.432-1.494 6.674-13.448 50.702-4.184 54.587zm-57.675-4.482c13.548.996.797-52.495-.298-59.667-1.096-7.272-5.977-21.815-16.038-13.348-5.08 4.283-2.789 14.145-1.793 19.723.897 7.172 7.77 52.495 18.13 53.292z"/>
</svg>
